X: 2
T: The Cameronian
R: reel
M: 4/4
L: 1/8
K: Dmaj
A2 FA DAFA|GE~E2 GBdB|A2 FA DAFA|GBAG FDD B|AF~F2 DF~F2|GE~E2 GBdB|A2FD ADFA|GBAG FDD B|A2 FA DAFA|GE~E2 GBdB|A2 FA DAFA|GBAG FDD B|A2dA eAdA|GE~E2 GBdB|A2FD ADFA|GBAG FDD B||Addc [d2D2] ed|B/c/d ef gfed|c/B/A eA fAeA|B/c/d ef gfeg|faea faea|fdec defg|af ge fdec|dBAG FDD B:||


Tune 284	Setting 28282

